packages/foundations/assets/icons/functional/images/devices/mobile_phone_disabled.svg

<svg xmlns="http://www.w3.org/2000/svg" width="32" height="32" fill="none"><path fill="#1A1C1F" fill-rule="evenodd" d="M10.193 2.111c-.46.124-.913.393-1.29.768-.427.425-.658.819-.797 1.364-.104.405-.106.611-.106 9.379v8.965L6.101 24.48c-1.247 1.243-1.933 1.967-1.999 2.107-.234.5-.012 1.071.511 1.312.25.116.388.123.687.039.193-.054 1.589-1.429 11.354-11.186C24.708 8.705 27.82 5.563 27.901 5.397a.98.98 0 0 0-.076-.963c-.251-.379-.835-.545-1.228-.349-.094.047-.716.629-1.384 1.293L24 6.586l-.001-.96c-.001-1.11-.061-1.45-.36-2.021-.387-.74-1.191-1.359-1.975-1.52-.194-.04-1.992-.057-5.733-.055-4.584.003-5.497.016-5.738.081m1.847 2.123c.08.297.296.554.571.679.202.092.424.098 3.389.098s3.187-.006 3.389-.098c.275-.125.491-.382.571-.679L20.022 4h.577c.786 0 1.054.115 1.273.545.094.183.101.339.101 2.133v1.936L16 14.587l-5.973 5.973v-7.909c0-7.655.003-7.915.101-8.106.219-.431.473-.54 1.261-.543L11.978 4zm10.933 9.033-1 1.001v6.495c0 6.268-.003 6.501-.101 6.692a.85.85 0 0 1-.499.463c-.172.072-.835.082-5.373.082s-5.201-.01-5.373-.082c-.45-.188-.6-.474-.6-1.143 0-.265-.019-.482-.041-.482s-.432.393-.911.872l-.87.871.084.202c.243.581.83 1.178 1.44 1.464.656.308.451.298 6.324.298 5.104 0 5.432-.006 5.734-.098 1.078-.33 1.888-1.182 2.134-2.245.069-.295.078-1.366.066-7.867l-.014-7.524zm-9.417 10.847a.98.98 0 0 0-.53.788c-.034.35.059.601.305.823.321.29.516.31 2.838.291 2.302-.018 2.295-.017 2.628-.434.145-.183.163-.244.163-.564 0-.448-.163-.732-.52-.905-.227-.11-.301-.113-2.444-.113-2.151 0-2.215.003-2.44.114"/></svg>

<svg width="32" height="32" viewBox="0 0 32 32" fill="none" xmlns="http://www.w3.org/2000/svg"><path d="M10.193 2.111 C 9.733 2.235,9.280 2.504,8.903 2.879 C 8.476 3.304,8.245 3.698,8.106 4.243 C 8.002 4.648,8.000 4.854,8.000 13.622 L 8.000 22.587 6.101 24.480 C 4.854 25.723,4.168 26.447,4.102 26.587 C 3.868 27.087,4.090 27.658,4.613 27.899 C 4.863 28.015,5.001 28.022,5.300 27.938 C 5.493 27.884,6.889 26.509,16.654 16.752 C 24.708 8.705,27.820 5.563,27.901 5.397 C 28.047 5.097,28.017 4.725,27.825 4.434 C 27.574 4.055,26.990 3.889,26.597 4.085 C 26.503 4.132,25.881 4.714,25.213 5.378 L 24.000 6.586 23.999 5.626 C 23.998 4.516,23.938 4.176,23.639 3.605 C 23.252 2.865,22.448 2.246,21.664 2.085 C 21.470 2.045,19.672 2.028,15.931 2.030 C 11.347 2.033,10.434 2.046,10.193 2.111 M12.040 4.234 C 12.120 4.531,12.336 4.788,12.611 4.913 C 12.813 5.005,13.035 5.011,16.000 5.011 C 18.965 5.011,19.187 5.005,19.389 4.913 C 19.664 4.788,19.880 4.531,19.960 4.234 L 20.022 4.000 20.599 4.000 C 21.385 4.000,21.653 4.115,21.872 4.545 C 21.966 4.728,21.973 4.884,21.973 6.678 L 21.973 8.614 16.000 14.587 L 10.027 20.560 10.027 12.651 C 10.027 4.996,10.030 4.736,10.128 4.545 C 10.347 4.114,10.601 4.005,11.389 4.002 L 11.978 4.000 12.040 4.234 M22.973 13.267 L 21.973 14.268 21.973 20.763 C 21.973 27.031,21.970 27.264,21.872 27.455 C 21.748 27.700,21.626 27.812,21.373 27.918 C 21.201 27.990,20.538 28.000,16.000 28.000 C 11.462 28.000,10.799 27.990,10.627 27.918 C 10.177 27.730,10.027 27.444,10.027 26.775 C 10.027 26.510,10.008 26.293,9.986 26.293 C 9.964 26.293,9.554 26.686,9.075 27.165 L 8.205 28.036 8.289 28.238 C 8.532 28.819,9.119 29.416,9.729 29.702 C 10.385 30.010,10.180 30.000,16.053 30.000 C 21.157 30.000,21.485 29.994,21.787 29.902 C 22.865 29.572,23.675 28.720,23.921 27.657 C 23.990 27.362,23.999 26.291,23.987 19.790 L 23.973 12.266 22.973 13.267 M13.556 24.114 C 13.261 24.260,13.059 24.561,13.026 24.902 C 12.992 25.252,13.085 25.503,13.331 25.725 C 13.652 26.015,13.847 26.035,16.169 26.016 C 18.471 25.998,18.464 25.999,18.797 25.582 C 18.942 25.399,18.960 25.338,18.960 25.018 C 18.960 24.570,18.797 24.286,18.440 24.113 C 18.213 24.003,18.139 24.000,15.996 24.000 C 13.845 24.000,13.781 24.003,13.556 24.114 " fill="#1A1C1F" stroke="none" fill-rule="evenodd"></path></svg>
